X:1
%%musicspace .3cm
T: Quince Dillon's High D Tune
C: R-68
C: Old-Time
M: C|
Z:
R: reel
K: D
FE| "D"D2D2 FDFA| dAde "G"dcB2| "A"A2A2 c2e2| a2a2 "D"d'2FE|
    "D"D2D2 FDFA| dAde "G"dcB2| "A"ABAG FDEF| "D"D4 z2 :|
\
ag|: "D"fd2A d2A2| defg agf2| "C"e=c2d "Am"cAGA| "A"^cd"D"ef "G"gage|
     "D"ed2A d2A2| defg aba2| "A"ABcd egfe|1 "D"d2a2 a3g:|2 "D"d2a2 a3|]
%
